public/icons/well/circle-arrow.svg

<svg viewBox="0 0 28 28" fill="none" xmlns="http://www.w3.org/2000/svg">
<rect x="5.83334" y="5.83301" width="16.3333" height="16.3333" fill="white"/>
<path d="M1.16666 14.0003C1.16666 21.117 6.88332 26.8337 14 26.8337C21.1167 26.8337 26.8333 21.117 26.8333 14.0003C26.8333 6.88366 21.1167 1.16699 14 1.16699C6.88332 1.16699 1.16666 6.88366 1.16666 14.0003ZM7.58332 14.0003C7.58332 13.3003 8.04999 12.8337 8.74999 12.8337H16.45L13.7667 10.1503C13.3 9.68366 13.3 8.98366 13.7667 8.51699C14.2333 8.05033 14.9333 8.05033 15.4 8.51699L20.0667 13.1837C20.5333 13.6503 20.5333 14.3503 20.0667 14.817L15.4 19.4837C15.1667 19.717 14.9333 19.8337 14.5833 19.8337C14.2333 19.8337 14 19.717 13.7667 19.4837C13.3 19.017 13.3 18.317 13.7667 17.8503L16.45 15.167H8.74999C8.16666 15.167 7.58332 14.7003 7.58332 14.0003Z" fill="current"/>
</svg>

<svg width="28" height="28" fill="none" xmlns="http://www.w3.org/2000/svg"><path fill="#fff" d="M5.833 5.833h16.333v16.333H5.833z"/><path d="M1.167 14A12.796 12.796 0 0 0 14 26.834 12.796 12.796 0 0 0 26.833 14 12.796 12.796 0 0 0 14 1.167 12.796 12.796 0 0 0 1.167 14Zm6.416 0c0-.7.467-1.166 1.167-1.166h7.7l-2.683-2.684a1.128 1.128 0 0 1 0-1.633 1.128 1.128 0 0 1 1.633 0l4.667 4.667a1.128 1.128 0 0 1 0 1.633L15.4 19.484c-.233.233-.467.35-.817.35-.35 0-.583-.117-.816-.35a1.128 1.128 0 0 1 0-1.634l2.683-2.683h-7.7c-.583 0-1.167-.467-1.167-1.167Z" fill="#313239"/></svg>
